assets/icons/link.svg

<svg width="25" height="25" viewBox="0 0 25 25" fill="none" xmlns="http://www.w3.org/2000/svg">
<g id="link">
<g id="iconDefault">
<path d="M4.17714 4.17714C4.45063 3.90365 4.82156 3.75 5.20833 3.75H10.4167C10.7618 3.75 11.0417 3.47018 11.0417 3.125C11.0417 2.77982 10.7618 2.5 10.4167 2.5H5.20833C4.49004 2.5 3.80116 2.78534 3.29325 3.29325C2.78534 3.80116 2.5 4.49004 2.5 5.20833V19.7917C2.5 20.51 2.78534 21.1988 3.29325 21.7067C3.80116 22.2147 4.49004 22.5 5.20833 22.5H19.7917C20.51 22.5 21.1988 22.2147 21.7067 21.7067C22.2147 21.1988 22.5 20.51 22.5 19.7917V14.5833C22.5 14.2382 22.2202 13.9583 21.875 13.9583C21.5298 13.9583 21.25 14.2382 21.25 14.5833V19.7917C21.25 20.1784 21.0964 20.5494 20.8229 20.8229C20.5494 21.0964 20.1784 21.25 19.7917 21.25H5.20833C4.82156 21.25 4.45063 21.0964 4.17714 20.8229C3.90365 20.5494 3.75 20.1784 3.75 19.7917V5.20833C3.75 4.82156 3.90365 4.45063 4.17714 4.17714Z" fill="#18303F"/>
<path d="M16.0417 3.125C16.0417 2.77982 16.3215 2.5 16.6667 2.5H21.875C21.9597 2.5 22.0405 2.51687 22.1142 2.54742C22.188 2.57792 22.257 2.62314 22.3169 2.68306C22.439 2.8051 22.5 2.96505 22.5 3.125V8.33333C22.5 8.67851 22.2202 8.95833 21.875 8.95833C21.5298 8.95833 21.25 8.67851 21.25 8.33333V4.63388L14.5044 11.3794C14.2604 11.6235 13.8646 11.6235 13.6206 11.3794C13.3765 11.1354 13.3765 10.7396 13.6206 10.4956L20.3661 3.75H16.6667C16.3215 3.75 16.0417 3.47018 16.0417 3.125Z" fill="#18303F"/>
</g>
</g>
</svg>

<svg width="25" height="25" viewBox="0 0 25 25" fill="none"><g id="link"><g id="iconDefault" fill="#18303F"><path d="M4.177 4.177a1.458 1.458 0 0 1 1.031-.427h5.209a.625.625 0 0 0 0-1.25H5.208A2.708 2.708 0 0 0 2.5 5.208v14.584A2.708 2.708 0 0 0 5.208 22.5h14.584a2.708 2.708 0 0 0 2.708-2.708v-5.209a.625.625 0 0 0-1.25 0v5.209a1.458 1.458 0 0 1-1.458 1.458H5.208a1.458 1.458 0 0 1-1.458-1.458V5.208c0-.386.154-.757.427-1.03Z"/><path d="M16.042 3.125c0-.345.28-.625.625-.625h5.208a.623.623 0 0 1 .625.625v5.208a.625.625 0 1 1-1.25 0v-3.7l-6.746 6.746a.625.625 0 1 1-.883-.883l6.745-6.746h-3.7a.625.625 0 0 1-.624-.625Z"/></g></g></svg>
